module-11/build/images/about/next.svg

<svg xmlns="http://www.w3.org/2000/svg" width="8" height="14"><path fill-rule="evenodd" fill="#DDD" d="M0 12.835c0 .127.055.239.137.323l.688.701a.465.465 0 00.316.141c.11 0 .234-.056.316-.141l6.405-6.537A.485.485 0 008 7a.485.485 0 00-.138-.323L1.457.14A.468.468 0 001.141 0a.468.468 0 00-.316.14L.137.841A.493.493 0 000 1.164c0 .112.055.238.137.323L5.539 7 .137 12.513a.488.488 0 00-.137.322z"/></svg>

<svg 
 xmlns="http://www.w3.org/2000/svg"
 xmlns:xlink="http://www.w3.org/1999/xlink"
 width="8px" height="14px">
<path fill-rule="evenodd"  fill="rgb(221, 221, 221)"
 d="M-0.000,12.835 C-0.000,12.962 0.055,13.074 0.137,13.158 L0.825,13.859 C0.907,13.944 1.031,14.000 1.141,14.000 C1.251,14.000 1.375,13.944 1.457,13.859 L7.862,7.322 C7.945,7.238 8.000,7.112 8.000,7.000 C8.000,6.887 7.945,6.761 7.862,6.677 L1.457,0.140 C1.375,0.056 1.251,-0.000 1.141,-0.000 C1.031,-0.000 0.907,0.056 0.825,0.140 L0.137,0.841 C0.055,0.926 -0.000,1.052 -0.000,1.164 C-0.000,1.276 0.055,1.402 0.137,1.487 L5.539,7.000 L0.137,12.513 C0.055,12.597 -0.000,12.723 -0.000,12.835 Z"/>
</svg>
